X: 13
T: Maids Of Ardagh, The
Z: brailsford
S: https://thesession.org/tunes/466#setting51377
R: polka
M: 2/4
L: 1/8
K: Amix
|:F>A BA|de f2|g/f/e/f/ gG|ed c/B/A|
F>A BA|de f2|g/f/e/f/ gc|1ed df/d/:|2ed d2||
ef/e/ ce|fe a2|e/f/e/d/ ce|fe cA|
ef/e/ ce|fe a2|ef/e/ dB|cA A2|
ef/e/ ce|ac e2|ef/e/ dB|fe cA|
ef/e/ ce|ac e2|ef/e/ dB | cA A^G/A/||

